X:1
T:Caecus opem
T:Daniel Friderici
T:Source : Bicinia sacra---Rostock---J.Richelius---1642. Editor : André Vierendeels (05/07/17).
T:Notes : Original clefs : C1, C1 Editorial accidentals above the staff Square brackets indicate ligatures 
T:Caecus opem
T:©
T:©
T:©
C:Daniel Friderici
Z:©
%%score [ 1 2 ]
L:1/8
Q:1/4=120
M:2/2
K:F
V:1 treble nm="Soprano 1" snm="S 1"
V:2 treble nm="Soprano 2" snm="S 2"
V:1
 C8- | C8 | F8 | E8 | D8- | D8 | G8 | F8 | E8- | E8 | A8 | G8 | F8- | F8 | B8 | A8 | G8- | G8 | %18
w: Cae-|||cus,|cae-|||cus,|cae-|||cus,|cae-|cus,-||cus,|cae-||
 c8 | B8 | A8- | A8 | d8 | c8 | z8 | F8- | F4 G4 | A4 B4 | G8 | F4 F4 | B6 A2 | G2 A2 B2 c2 | d8 | %33
w: |cus,|_|||cus,||cae-|* cus|o- pem|quae-|ras, à|ve- *|||
 c4 B4- | B2 B2 A4 | G6 A2 | =B4 c4- | c2 =BA B4 | c4 d4 | G8 | A4 B4- | B2 B2 F4 | G8 | C8 :: %44
w: ro Lu-|* mi- ne|vi- *|||tae, à|ve-|ro Lu-|* mi- ne|vi-|tae.|
 c4 c2 c2 | dcdc BABA | G2 G2 c3 B | A2 B3 ABc | d2 c2 B2 A2 | z2 B3 ABc | d2 c2 B2 A2 | %51
w: Qui Chri- sti|ri- * * * * * * *|* det mu- ne-|ra lu- * * *|* ce ca- ret,|lu- * * *|* ce ca- ret,|
 z2 B3 ABc | dcdc B2 A2 | GF F3 E/D/ E2 | F8 :| %55
w: lu- * * *|* * * * * ce|ca- * * * * *|ret.|
V:2
 z8 | z8 | C8- | C8 | F8 | E8 | D8- | D8 | G8 | F8 | E8- | E8 | A8 | G8 | F8- | F8 | B8 | A8 | %18
w: ||Cae-|||cus,|cae-|||cus,|cae-|||cus,|cae-|||cus,|
 G8- | G8 | c8 | B8 | A8- | A8 | d8 | c4 A4- | A4 =B4 | c4 G4 | B8 | A4 c4 | G6 A2 | B2 c2 d2 c2 | %32
w: cae-|||cus,|cae-|||cus cae-|* cus|o- pem|quae-|ras, à|ve- *||
 B2 A2 G4 | A4 z2 d2 | d4 c4 | B6 A2 | G4 F4 | G4 G4 | A2 GA B2 GA | B8 | c4 d4- | d2 d2 c2 c2- | %42
w: |ro, à|ve- ro|Lu- *|* mi-|ne, à|ve- * * * * *||ro Lu-|* mi- ne vi-|
 c2 =BA B4 | c8 :: A4 A2 A2 | BABc dcdc | B2 B2 A3 B | c2 d3 cdc | B2 A2 G2 c2 | z2 d3 cdc | %50
w: |tae.|Qui Chri- sti|ri- * * * * * * *|* det mu- ne-|ra lu- * * *|* ce ca- ret,|lu- * * *|
 B2 A2 G2 c2 | z2 d3 cdc | BABA G2 F2 | EDEF G4 | F8 :| %55
w: * ce ca- ret,|lu- * * *|* * * * * ce|ca- * * * *|ret.|

